modules/hawcons-stroke/icons/icon-14-file-psd.svg

<?xml version="1.0" encoding="UTF-8" standalone="no"?>
<svg width="32px" height="32px" viewBox="0 0 32 32" version="1.1" xmlns="http://www.w3.org/2000/svg" xmlns:xlink="http://www.w3.org/1999/xlink" xmlns:sketch="http://www.bohemiancoding.com/sketch/ns">
    <!-- Generator: Sketch 3.0.3 (7891) - http://www.bohemiancoding.com/sketch -->
    <title>icon 14 file psd</title>
    <desc>Created with Sketch.</desc>
    <defs></defs>
    <g id="Page-1" stroke="none" stroke-width="1" fill="none" fill-rule="evenodd" sketch:type="MSPage">
        <g id="icon-14-file-psd" sketch:type="MSArtboardGroup" fill="#929292">
            <path d="M8.00684834,10 C6.34621185,10 5,11.3422643 5,12.9987856 L5,20.0012144 C5,21.6573979 6.33599155,23 8.00684834,23 L24.9931517,23 C26.6537881,23 28,21.6577357 28,20.0012144 L28,12.9987856 C28,11.3426021 26.6640085,10 24.9931517,10 L8.00684834,10 L8.00684834,10 Z M7.99456145,11 C6.89299558,11 6,11.9001762 6,12.992017 L6,20.007983 C6,21.1081436 6.90234375,22 7.99456145,22 L25.0054385,22 C26.1070044,22 27,21.0998238 27,20.007983 L27,12.992017 C27,11.8918564 26.0976562,11 25.0054385,11 L7.99456145,11 L7.99456145,11 Z M8,15 L8,20 L9,20 L9,17 L10.9951185,17 C12.102384,17 13,16.1122704 13,15 C13,13.8954305 12.1061002,13 10.9951185,13 L8,13 L8,15 L8,15 Z M9,14 L9,16 L11.0010434,16 C11.5527519,16 12,15.5561352 12,15 C12,14.4477153 11.5573397,14 11.0010434,14 L9,14 L9,14 Z M16.0048815,13 C14.897616,13 14,13.8877296 14,15 C14,16.1045695 14.8877296,17 16,17 L16.9906311,17 C17.5480902,17 18,17.4438648 18,18 C18,18.5522847 17.5573397,19 17.0010434,19 L15.9989566,19 C15.4472481,19 15,18.543716 15,18.0044713 L15,17.9931641 L14,17.9931641 L14,17.998921 C14,19.1040864 14.8938998,20 16.0048815,20 L16.9951185,20 C18.102384,20 19,19.1122704 19,18 C19,16.8954305 18.1122704,16 17,16 L16.0093689,16 C15.4519098,16 15,15.5561352 15,15 C15,14.4477153 15.4426603,14 15.9989566,14 L17.0010434,14 C17.5527519,14 18,14.453186 18,15 L19,15 C19,13.8954305 18.1061002,13 16.9951185,13 L16.0048815,13 L16.0048815,13 Z M20,13 L20,20 L22.9951185,20 C24.102384,20 25,19.1134452 25,17.9940809 L25,15.0059191 C25,13.8980806 24.1061002,13 22.9951185,13 L20,13 L20,13 Z M21,14 L21,19 L23.0010434,19 C23.5527519,19 24,18.5562834 24,18.0001925 L24,14.9998075 C24,14.4476291 23.5573397,14 23.0010434,14 L21,14 L21,14 Z" id="file-psd" sketch:type="MSShapeGroup"></path>
        </g>
    </g>
</svg>

<svg width="32" height="32" xmlns="http://www.w3.org/2000/svg"><path d="M8.007 10A3.003 3.003 0 0 0 5 12.999V20A2.996 2.996 0 0 0 8.007 23h16.986A3.003 3.003 0 0 0 28 20.001V13A2.996 2.996 0 0 0 24.993 10H8.007zm-.012 1C6.893 11 6 11.9 6 12.992v7.016A2 2 0 0 0 7.995 22h17.01C26.107 22 27 21.1 27 20.008v-7.016A2 2 0 0 0 25.005 11H7.995zM8 15v5h1v-3h1.995a2 2 0 0 0 0-4H8v2zm1-1v2h2.001A.997.997 0 0 0 12 15c0-.552-.443-1-.999-1H9zm7.005-1A1.998 1.998 0 0 0 14 15c0 1.105.888 2 2 2h.99c.558 0 1.01.444 1.01 1 0 .552-.443 1-.999 1h-1.002c-.552 0-.999-.456-.999-.996v-.01h-1v.005A2 2 0 0 0 16.005 20h.99A1.998 1.998 0 0 0 19 18c0-1.105-.888-2-2-2h-.99c-.558 0-1.01-.444-1.01-1 0-.552.443-1 .999-1h1.002c.552 0 .999.453.999 1h1a2 2 0 0 0-2.005-2h-.99zM20 13v7h2.995A1.998 1.998 0 0 0 25 17.994v-2.988A2.003 2.003 0 0 0 22.995 13H20zm1 1v5h2.001A.997.997 0 0 0 24 18v-3c0-.552-.443-1-.999-1H21z" fill="#929292" fill-rule="evenodd"/></svg>
